X: 35809
T: Saltarello
R: jig
M: 6/8
K: Gmajor
|:GAG BAB|d2d ded|c2c ABc|BAB G2B|
GAG BAB|d3 d2e|fed cBA|G3G3:|
|:d2d def|e2d def|e2d cBA|BAB G2B|
d2d def|e2d d2e|fed cBA|1 G3 G2B:|2 G2G ded||
B2d ded|A2A d2e|fed fed|e2d ded|
B2d ded|A2d d2e|fed cBA|G2d ded|
B2d ded|c2d d2e|fed fed|e2d ded|
B2d ded|c2d d2e|fed cBA|G3 G2B|
|:G2B G2B|B2A ABc|A2c A2c|c2B GAB|
G2B G2B|B2A ABc|ded cBA|1 G3 G2B:|2 G3 GBc||
|:d3 c3|B3 G2B|A2A cBA|B2G B2c|
d3 c3|B3 G2B|A2A cBA|1 G3 B2c:|2 G3 B2A||

